build/images/last-section/Vectorls-icon.svg

<svg width="79" height="69" viewBox="0 0 79 69" fill="none" xmlns="http://www.w3.org/2000/svg">
<path d="M61.6295 46.2937L60.1503 46.0448L60.146 46.0703L60.1426 46.096L61.6295 46.2937ZM57.8141 49.7565V51.2565H57.8423L57.8704 51.2555L57.8141 49.7565ZM13.0433 49.7565L13.004 51.256L13.0236 51.2565H13.0433V49.7565ZM9.32061 46.8156L10.771 46.4329L10.7656 46.4125L10.7596 46.3922L9.32061 46.8156ZM2.18585 22.5649L3.62486 22.1416L3.62464 22.1408L2.18585 22.5649ZM55.5521 17.0636V18.5636H55.6826L55.8112 18.541L55.5521 17.0636ZM59.6346 6.34892H58.1346V6.44977L58.1481 6.54971L59.6346 6.34892ZM72.9775 10.6978V9.19783H72.9233L72.8693 9.20174L72.9775 10.6978ZM9.46777 22.5376C8.63935 22.5376 7.96777 23.2092 7.96777 24.0376C7.96777 24.8661 8.63935 25.5376 9.46777 25.5376V22.5376ZM25.1101 25.5376C25.9386 25.5376 26.6101 24.8661 26.6101 24.0376C26.6101 23.2092 25.9386 22.5376 25.1101 22.5376V25.5376ZM11.5063 28.5554C10.6778 28.5554 10.0063 29.227 10.0063 30.0554C10.0063 30.8839 10.6778 31.5554 11.5063 31.5554V28.5554ZM18.6846 31.5554C19.5131 31.5554 20.1846 30.8839 20.1846 30.0554C20.1846 29.227 19.5131 28.5554 18.6846 28.5554V31.5554ZM64.2327 21.7887L60.1503 46.0448L63.1087 46.5427L67.1911 22.2866L64.2327 21.7887ZM60.1426 46.096C60.0652 46.6775 59.7842 47.2138 59.348 47.6096L61.3642 49.8311C62.3245 48.9595 62.9455 47.7767 63.1164 46.4914L60.1426 46.096ZM59.348 47.6096C58.9118 48.0056 58.3485 48.2354 57.7578 48.2576L57.8704 51.2555C59.1664 51.2068 60.404 50.7026 61.3642 49.8311L59.348 47.6096ZM57.8141 48.2565H13.0433V51.2565H57.8141V48.2565ZM13.0827 48.2571C12.5502 48.2431 12.037 48.0572 11.6203 47.728L9.76059 50.082C10.6863 50.8133 11.8244 51.2251 13.004 51.256L13.0827 48.2571ZM11.6203 47.728C11.2036 47.3988 10.9059 46.9442 10.771 46.4329L7.87024 47.1982C8.17117 48.3389 8.83477 49.3506 9.76059 50.082L11.6203 47.728ZM10.7596 46.3922L3.62486 22.1416L0.746837 22.9883L7.8816 47.239L10.7596 46.3922ZM3.62464 22.1408C3.06156 20.2306 4.43176 18.5636 5.90312 18.5636V15.5636C2.12016 15.5636 -0.292325 19.4631 0.747059 22.9891L3.62464 22.1408ZM5.90312 18.5636H55.5521V15.5636H5.90312V18.5636ZM55.5521 17.0636C55.8112 18.541 55.8125 18.5408 55.8137 18.5406C55.8142 18.5405 55.8155 18.5403 55.8164 18.5401C55.8181 18.5398 55.8199 18.5395 55.8218 18.5391C55.8255 18.5385 55.8293 18.5377 55.8333 18.537C55.8414 18.5354 55.8501 18.5337 55.8594 18.5318C55.878 18.528 55.8992 18.5234 55.9228 18.5179C55.97 18.5068 56.0269 18.492 56.0924 18.4723C56.2232 18.433 56.3885 18.3741 56.5786 18.2869C56.9604 18.1118 57.4364 17.825 57.9288 17.3619C58.9271 16.423 59.8937 14.8555 60.3781 12.2919L57.4303 11.7349C57.0426 13.7865 56.3332 14.7442 55.8735 15.1765C55.6369 15.3991 55.4383 15.5094 55.3279 15.5601C55.2718 15.5858 55.2366 15.597 55.2284 15.5994C55.2243 15.6006 55.2271 15.5997 55.2375 15.5972C55.2427 15.596 55.2499 15.5944 55.2591 15.5925C55.2637 15.5916 55.2688 15.5906 55.2745 15.5895C55.2773 15.5889 55.2803 15.5884 55.2834 15.5878C55.2849 15.5876 55.2865 15.5873 55.2881 15.587C55.2889 15.5868 55.2901 15.5866 55.2905 15.5865C55.2918 15.5863 55.293 15.5861 55.5521 17.0636ZM60.3781 12.2919C60.8201 9.95286 61.0115 8.48507 61.0907 7.58143C61.1304 7.12871 61.1426 6.80971 61.1431 6.58796C61.1433 6.47666 61.1406 6.38766 61.1365 6.31675C61.1344 6.28119 61.132 6.24976 61.1294 6.22198C61.1281 6.20807 61.1268 6.19501 61.1254 6.18274C61.1247 6.17661 61.124 6.17066 61.1232 6.1649C61.1229 6.16202 61.1225 6.15918 61.1222 6.15638C61.122 6.15499 61.1218 6.1536 61.1216 6.15222C61.1215 6.15154 61.1214 6.15051 61.1213 6.15017C61.1212 6.14915 61.1211 6.14813 59.6346 6.34892C58.1481 6.54971 58.1479 6.5487 58.1478 6.54769C58.1478 6.54736 58.1476 6.54636 58.1475 6.54571C58.1474 6.5444 58.1472 6.54311 58.147 6.54184C58.1467 6.5393 58.1464 6.53685 58.1461 6.53449C58.1455 6.52977 58.145 6.5254 58.1445 6.52139C58.1436 6.51337 58.143 6.50677 58.1425 6.50167C58.1415 6.49151 58.1413 6.48713 58.1414 6.48927C58.1417 6.49377 58.1432 6.5228 58.1431 6.58197C58.1428 6.70117 58.136 6.93292 58.1021 7.3194C58.0342 8.09417 57.8604 9.45862 57.4303 11.7349L60.3781 12.2919ZM61.1346 6.34892C61.1346 4.66461 62.373 3.5 63.6625 3.5V0.5C60.5044 0.5 58.1346 3.22767 58.1346 6.34892H61.1346ZM63.6625 3.5H72.9775V0.5H63.6625V3.5ZM72.9775 3.5C74.2634 3.5 75.5 4.66604 75.5 6.34892H78.5C78.5 3.23711 76.1393 0.5 72.9775 0.5V3.5ZM75.5 6.34892C75.5 8.03597 74.2645 9.19783 72.9775 9.19783V12.1978C76.1381 12.1978 78.5 9.46742 78.5 6.34892H75.5ZM72.9775 10.6978C72.8693 9.20174 72.8689 9.20177 72.8685 9.2018C72.8683 9.20182 72.8678 9.20185 72.8675 9.20187C72.8668 9.20192 72.8661 9.20198 72.8652 9.20204C72.8636 9.20216 72.8617 9.2023 72.8595 9.20247C72.8552 9.2028 72.8498 9.20323 72.8434 9.20375C72.8305 9.2048 72.8135 9.20624 72.7925 9.20814C72.7507 9.21195 72.6931 9.2176 72.6216 9.22558C72.479 9.24152 72.28 9.26691 72.0404 9.30584C71.5651 9.38306 70.911 9.51654 70.2122 9.74338C68.9223 10.1621 66.9917 11.0561 66.2428 12.9879L69.04 14.0722C69.2668 13.4871 70.0042 12.965 71.1384 12.5968C71.6517 12.4302 72.1487 12.3276 72.5215 12.267C72.7059 12.2371 72.8552 12.2182 72.9548 12.207C73.0045 12.2015 73.0415 12.1979 73.064 12.1958C73.0753 12.1948 73.0829 12.1942 73.0865 12.1939C73.0884 12.1937 73.0893 12.1937 73.0891 12.1937C73.0891 12.1937 73.0887 12.1937 73.0882 12.1937C73.0879 12.1938 73.0875 12.1938 73.0871 12.1938C73.0869 12.1938 73.0865 12.1939 73.0864 12.1939C73.0861 12.1939 73.0857 12.1939 72.9775 10.6978ZM66.2428 12.9879C65.7012 14.3852 65.1975 16.6341 64.8397 18.4322C64.6565 19.3524 64.5046 20.1914 64.3985 20.8001C64.3454 21.1047 64.3036 21.3524 64.2751 21.5244C64.2608 21.6105 64.2498 21.6777 64.2423 21.7237C64.2386 21.7468 64.2357 21.7645 64.2337 21.7767C64.2328 21.7827 64.232 21.7874 64.2315 21.7907C64.2312 21.7923 64.231 21.7936 64.2309 21.7945C64.2308 21.7949 64.2307 21.7953 64.2307 21.7956C64.2307 21.7957 64.2307 21.7959 64.2306 21.7959C64.2306 21.796 64.2306 21.7961 65.7119 22.0322C67.1932 22.2683 67.1932 22.2683 67.1932 22.2683C67.1932 22.2683 67.1932 22.2683 67.1932 22.2683C67.1932 22.2682 67.1933 22.268 67.1933 22.2677C67.1934 22.2672 67.1936 22.2663 67.1937 22.265C67.1942 22.2625 67.1948 22.2586 67.1956 22.2532C67.1973 22.2426 67.2 22.2264 67.2034 22.205C67.2104 22.1621 67.2209 22.0983 67.2346 22.0158C67.262 21.8507 67.3024 21.6111 67.3539 21.3153C67.4571 20.7231 67.6047 19.9085 67.782 19.0178C68.1449 17.194 68.606 15.1918 69.04 14.0722L66.2428 12.9879ZM19.6101 61.1942C19.6101 63.5685 17.6792 65.5 15.289 65.5V68.5C19.3286 68.5 22.6101 65.2328 22.6101 61.1942H19.6101ZM15.289 65.5C12.8987 65.5 10.9678 63.5685 10.9678 61.1942H7.96777C7.96777 65.2328 11.2493 68.5 15.289 68.5V65.5ZM10.9678 61.1942C10.9678 58.8199 12.8987 56.8884 15.289 56.8884V53.8884C11.2493 53.8884 7.96777 57.1556 7.96777 61.1942H10.9678ZM15.289 56.8884C17.6792 56.8884 19.6101 58.8199 19.6101 61.1942H22.6101C22.6101 57.1556 19.3286 53.8884 15.289 53.8884V56.8884ZM56.7283 61.1942C56.7283 63.5685 54.7974 65.5 52.4071 65.5V68.5C56.4468 68.5 59.7283 65.2328 59.7283 61.1942H56.7283ZM52.4071 65.5C50.0169 65.5 48.086 63.5685 48.086 61.1942H45.086C45.086 65.2328 48.3675 68.5 52.4071 68.5V65.5ZM48.086 61.1942C48.086 58.8199 50.0169 56.8884 52.4071 56.8884V53.8884C48.3675 53.8884 45.086 57.1556 45.086 61.1942H48.086ZM52.4071 56.8884C54.7974 56.8884 56.7283 58.8199 56.7283 61.1942H59.7283C59.7283 57.1556 56.4468 53.8884 52.4071 53.8884V56.8884ZM9.46777 25.5376H25.1101V22.5376H9.46777V25.5376ZM11.5063 31.5554H18.6846V28.5554H11.5063V31.5554Z" fill="#61DB45"/>
</svg>

<svg width="79" height="69" fill="none" xmlns="http://www.w3.org/2000/svg"><path d="M61.63 46.294l-1.48-.25-.004.026-.003.026 1.486.198zm-3.816 3.463v1.5h.028l.028-.002-.056-1.498zm-44.77 0l-.04 1.499h.04v-1.5zM9.32 46.816l1.45-.383-.005-.02-.006-.02-1.44.423zM2.186 22.565l1.439-.423v-.001l-1.44.424zm53.366-5.501v1.5h.13l.13-.023-.26-1.477zm4.083-10.715h-1.5v.1l.013.1 1.487-.2zm13.343 4.349v-1.5h-.055l-.054.004.109 1.496zm-63.51 11.84a1.5 1.5 0 0 0 0 3v-3zm15.642 3a1.5 1.5 0 1 0 0-3v3zm-13.604 3.017a1.5 1.5 0 1 0 0 3v-3zm7.179 3a1.5 1.5 0 1 0 0-3v3zm45.548-9.766L60.15 46.045l2.959.498 4.082-24.256-2.958-.498zm-4.09 24.307a2.487 2.487 0 0 1-.795 1.514l2.016 2.221a5.487 5.487 0 0 0 1.752-3.34l-2.973-.395zm-.795 1.514a2.51 2.51 0 0 1-1.59.648l.112 2.997a5.506 5.506 0 0 0 3.494-1.424l-2.016-2.221zm-1.534.647h-44.77v3h44.77v-3zm-44.731 0a2.464 2.464 0 0 1-1.463-.529l-1.86 2.354a5.463 5.463 0 0 0 3.244 1.174l.079-2.999zm-1.463-.529a2.446 2.446 0 0 1-.849-1.295l-2.9.765a5.44 5.44 0 0 0 1.89 2.884l1.86-2.354zm-.86-1.336l-7.135-24.25-2.878.846L7.882 47.24l2.878-.847zM3.625 22.141c-.563-1.91.807-3.577 2.278-3.577v-3c-3.783 0-6.195 3.9-5.156 7.425l2.878-.848zm2.278-3.577h49.65v-3H5.902v3zm49.65-1.5c.258 1.477.26 1.477.26 1.477h.003l.006-.002.011-.002.026-.005a2.372 2.372 0 0 0 .233-.06c.131-.039.297-.098.487-.185a5.064 5.064 0 0 0 1.35-.925c.998-.939 1.965-2.506 2.45-5.07l-2.949-.557c-.387 2.052-1.097 3.01-1.556 3.442a2.08 2.08 0 0 1-.546.383.808.808 0 0 1-.1.04c-.004 0 0 0 .01-.003a.96.96 0 0 1 .021-.005l.016-.003.008-.001.005-.001h.003s.002 0 .261 1.477zm4.825-4.772c.442-2.34.633-3.807.713-4.71.04-.453.052-.772.052-.994a4.589 4.589 0 0 0-.018-.405.745.745 0 0 0-.002-.018v-.009l-.001-.004V6.15s0-.002-1.487.199l-1.487.199v-.002l-.001-.004v-.008c-.002-.004-.002-.009-.002-.013l-.003-.02V6.49l.001.093c0 .12-.007.35-.04.737-.069.775-.243 2.14-.673 4.416l2.948.557zm.757-5.943c0-1.684 1.238-2.849 2.528-2.849v-3c-3.159 0-5.528 2.728-5.528 5.849h3zM63.663 3.5h9.315v-3h-9.315v3zm9.315 0c1.285 0 2.522 1.166 2.522 2.849h3C78.5 3.237 76.14.5 72.978.5v3zM75.5 6.349c0 1.687-1.236 2.849-2.522 2.849v3c3.16 0 5.522-2.73 5.522-5.85h-3zm-2.522 4.349a272.66 272.66 0 0 0-.11-1.496h-.008a3.749 3.749 0 0 0-.067.006l-.171.018a12.49 12.49 0 0 0-2.41.518c-1.29.418-3.22 1.312-3.97 3.244l2.798 1.084c.227-.585.964-1.107 2.098-1.475a9.5 9.5 0 0 1 1.926-.401l.023-.002h.002-.002l-.11-1.496zm-6.735 2.29c-.542 1.397-1.045 3.646-1.403 5.444a102.187 102.187 0 0 0-.606 3.345l-.002.014a.055.055 0 0 0-.001.005l1.48.236 1.482.236v-.003a.28.28 0 0 0 .003-.012l.007-.048a71.366 71.366 0 0 1 .15-.89c.104-.592.252-1.407.429-2.297.363-1.824.824-3.826 1.258-4.946l-2.797-1.084zM19.61 61.194a4.313 4.313 0 0 1-4.32 4.306v3c4.04 0 7.321-3.267 7.321-7.306h-3zM15.29 65.5a4.313 4.313 0 0 1-4.321-4.306h-3c0 4.039 3.281 7.306 7.321 7.306v-3zm-4.321-4.306a4.313 4.313 0 0 1 4.321-4.306v-3c-4.04 0-7.321 3.268-7.321 7.306h3zm4.321-4.306a4.313 4.313 0 0 1 4.321 4.306h3c0-4.038-3.281-7.306-7.321-7.306v3zm41.44 4.306a4.313 4.313 0 0 1-4.322 4.306v3c4.04 0 7.321-3.267 7.321-7.306h-3zM52.406 65.5a4.313 4.313 0 0 1-4.321-4.306h-3c0 4.039 3.282 7.306 7.321 7.306v-3zm-4.321-4.306a4.313 4.313 0 0 1 4.321-4.306v-3c-4.04 0-7.321 3.268-7.321 7.306h3zm4.321-4.306a4.313 4.313 0 0 1 4.321 4.306h3c0-4.038-3.281-7.306-7.32-7.306v3zm-42.94-31.35H25.11v-3H9.468v3zm2.04 6.017h7.178v-3h-7.179v3z" fill="#61DB45"/></svg>
